X: 108
T:The White Petticoat
M:6/8
K:Em
"Em"Bed cBA|GFE B,EG|"B7"FBB cBB|eBB cBA|
"Em"Bed cBA|GFE B,EG|"B7"FBB "(Am)"cBA| "Em(C)"GED E3 :|
|: "C"gec Gce|gaf gec|"Am"cBA EAc|"Em"Be^d eBG|
"B7"FBB GBB|"B7"FBA "(C)"GFE|"B7"B,EG "(Am)"cBA|"Em"GED E3:|
